X:689
M:C
L:1/8
Q:1/4=140
K:D
f/g/|a>ba>f d>Ad>f|e>f g/f/e/d/ B2 Bf/g/|a>ba>f d>Ad>f|ef/g/ a/g/f/e/ d2 df/g/|
a>ba>f d>Ad>f|e>f g/f/e/d/ B2 Bc/d/|A>BA>F A>d B/A/G/F/|
E/D/E/F/ A/G/F/E/ D2 D2||

